Yaru++/apps/scalable/smartgit.svg

<?xml version="1.0" encoding="UTF-8" standalone="no"?>
<svg
   xmlns:dc="http://purl.org/dc/elements/1.1/"
   xmlns:cc="http://creativecommons.org/ns#"
   xmlns:rdf="http://www.w3.org/1999/02/22-rdf-syntax-ns#"
   xmlns:svg="http://www.w3.org/2000/svg"
   xmlns="http://www.w3.org/2000/svg"
   xmlns:xlink="http://www.w3.org/1999/xlink"
   xmlns:sodipodi="http://sodipodi.sourceforge.net/DTD/sodipodi-0.dtd"
   xmlns:inkscape="http://www.inkscape.org/namespaces/inkscape"
   style="enable-background:new"
   width="256"
   height="256"
   version="1.0"
   viewBox="0 0 256 256"
   id="svg58"
   sodipodi:docname="cantata.svg"
   inkscape:version="0.92.4 (5da689c313, 2019-01-14)">
  <metadata
     id="metadata62">
    <rdf:RDF>
      <cc:Work
         rdf:about="">
        <dc:format>image/svg+xml</dc:format>
        <dc:type
           rdf:resource="http://purl.org/dc/dcmitype/StillImage" />
        <dc:title>
  Adwaita Icon Template
 </dc:title>
      </cc:Work>
    </rdf:RDF>
  </metadata>
  <sodipodi:namedview
     pagecolor="#ffffff"
     bordercolor="#666666"
     borderopacity="1"
     objecttolerance="10"
     gridtolerance="10"
     guidetolerance="10"
     inkscape:pageopacity="0"
     inkscape:pageshadow="2"
     inkscape:window-width="1920"
     inkscape:window-height="1016"
     id="namedview60"
     showgrid="false"
     inkscape:zoom="3.4174597"
     inkscape:cx="128.30399"
     inkscape:cy="129.2"
     inkscape:window-x="0"
     inkscape:window-y="27"
     inkscape:window-maximized="1"
     inkscape:current-layer="svg58" />
  <title
     id="title4162">
  Adwaita Icon Template
 </title>
  <defs
     id="defs30">
    <linearGradient
       id="linearGradient950">
      <stop
         style="stop-color:#9a9996"
         id="stop946"
         offset="0" />
      <stop
         style="stop-color:#77767b"
         id="stop948"
         offset="1" />
    </linearGradient>
    <linearGradient
       id="linearGradient1001"
       x1="1660.857"
       x2="1662.99"
       y1="806.297"
       y2="812.882"
       gradientTransform="matrix(1.8293937,-0.81599442,0.81599442,1.8293937,-3645.9624,100.02949)"
       gradientUnits="userSpaceOnUse"
       xlink:href="#linearGradient950" />
    <clipPath
       id="clipPath5154"
       clipPathUnits="userSpaceOnUse">
      <circle
         style="fill:url(#radialGradient5158)"
         cx="128"
         cy="924.362"
         r="109.647"
         id="circle7" />
    </clipPath>
    <clipPath
       id="clipPath977"
       clipPathUnits="userSpaceOnUse">
      <circle
         style="fill:url(#radialGradient5158)"
         cx="128"
         cy="924.362"
         r="109.647"
         id="circle10" />
    </clipPath>
    <clipPath
       id="clipPath4688"
       clipPathUnits="userSpaceOnUse">
      <path
         style="fill:url(#radialGradient4692);stroke:#a7003f;stroke-linecap:round;stroke-linejoin:round"
         d="m 106.42383,889.60156 c -2.2448,-0.0524 -4.09304,1.75264 -4.09375,3.99805 v 32.64453 32.64453 c -4e-5,3.07923 3.33305,5.004 6,3.46485 l 28.26953,-16.32227 28.27148,-16.32227 c 2.66559,-1.54001 2.66559,-5.38772 0,-6.92773 l -28.27148,-16.32227 -28.26953,-16.32226 c -0.58054,-0.3353 -1.23603,-0.51932 -1.90625,-0.53516 z"
         id="path13" />
    </clipPath>
    <clipPath
       id="clipPath4564"
       clipPathUnits="userSpaceOnUse">
      <circle
         style="fill:url(#radialGradient4568)"
         cx="128"
         cy="924.362"
         r="109.647"
         id="circle16" />
    </clipPath>
    <clipPath
       id="clipPath6215"
       clipPathUnits="userSpaceOnUse">
      <path
         style="fill:url(#radialGradient6219)"
         d="m 105.17325,806.18572 c -3.06859,0.56361 -6.11393,1.24721 -9.129005,2.04923 -3.838255,1.06506 -7.62084,2.32142 -11.333578,3.76438 -3.712189,1.44307 -7.34989,3.07087 -10.899472,4.87732 -3.549153,1.80656 -7.005749,3.78947 -10.35684,5.94129 -3.351877,2.15253 -6.593991,4.47137 -9.714191,6.94783 -3.119992,2.47544 -6.114241,5.10535 -8.971529,7.87988 -0.367219,0.38909 -0.731819,0.78065 -1.093777,1.17464 2.60205,17.85956 16.832359,40.03752 30.863064,55.74236 -4.76734,8.84435 -7.265993,18.73329 -7.272057,28.78068 0.02104,2.87431 0.246096,5.7435 0.673482,8.58593 -20.257302,-9.18513 -43.077023,-26.53494 -52.798465,-47.36396 -0.440667,1.15171 -0.863474,2.31018 -1.268271,3.47498 -1.176789,3.80495 -2.162562,7.66637 -2.953625,11.56979 -0.79154,3.90311 -1.3874065,7.84335 -1.7853678,11.80598 -0.39733,3.96334 -0.5961891,7.94407 -0.5958321,11.92728 -4.394e-4,2.81936 0.098928,5.63785 0.2979155,8.45018 0.282275,3.97319 0.763088,7.92978 1.4406374,11.85493 0.625626,3.51826 1.408798,7.00668 2.347153,10.45473 16.778133,6.68355 43.114514,5.45001 63.748015,1.14301 6.818545,11.02763 16.987182,19.58379 29.018153,24.41667 -18.071844,12.93645 -44.490188,24.02095 -67.37308,22.03245 1.384097,1.665 2.813203,3.2921 4.285735,4.8794 2.774977,2.8571 5.691103,5.5737 8.737453,8.1395 3.046107,2.5658 6.218619,4.9777 9.505651,7.2266 3.287242,2.2488 6.684891,4.3319 10.180217,6.2413 3.495379,1.9096 7.084075,3.6433 10.752641,5.1944 3.66896,1.5509 7.413193,2.9174 11.218668,4.0942 1.438565,0.3959 2.884421,0.7648 4.336807,1.1066 14.138748,-11.1844 26.206378,-34.5828 32.780368,-54.56406 12.95816,-0.38251 25.45395,-4.90132 35.65955,-12.89544 2.15922,22.12638 -1.46693,50.5581 -14.64692,69.3832 3.06859,-0.5636 6.11393,-1.2473 9.129,-2.0493 3.83826,-1.0651 7.62084,-2.3214 11.33358,-3.7644 3.71219,-1.4431 7.34989,-3.0709 10.89947,-4.8773 3.54915,-1.8066 7.00575,-3.7895 10.35684,-5.9413 3.35188,-2.1525 6.59399,-4.4714 9.71419,-6.9478 3.11999,-2.4754 6.11424,-5.1054 8.97153,-7.8799 0.36722,-0.3891 0.73182,-0.7806 1.09378,-1.1746 -2.60204,-17.85957 -16.83236,-40.03755 -30.86307,-55.74238 4.76735,-8.84435 7.266,-18.7333 7.27207,-28.78069 -0.021,-2.8743 -0.24611,-5.74349 -0.6735,-8.58592 20.25731,9.18513 43.07704,26.53494 52.79848,47.36396 0.44067,-1.15171 0.86347,-2.31018 1.26827,-3.47499 1.17679,-3.80495 2.16256,-7.66636 2.95362,-11.56978 0.79154,-3.90311 1.38741,-7.84335 1.78537,-11.80598 0.39733,-3.96334 0.59619,-7.94408 0.59583,-11.92729 4.4e-4,-2.81936 -0.0989,-5.63784 -0.29791,-8.45017 -0.28228,-3.97319 -0.76309,-7.92978 -1.44064,-11.85493 -0.62776,-3.53416 -1.41449,-7.03823 -2.35779,-10.50154 -20.56165,-7.32804 -45.89823,-4.79548 -63.74906,-1.11372 -6.81835,-11.01918 -16.98234,-19.56874 -29.00647,-24.39915 18.07184,-12.93645 44.49019,-24.02091 67.37307,-22.03241 -1.38409,-1.66502 -2.8132,-3.2921 -4.28573,-4.87944 -2.77498,-2.85712 -5.6911,-5.57368 -8.73745,-8.13949 -3.04611,-2.56581 -6.21862,-4.97769 -9.50565,-7.22659 -3.28724,-2.24885 -6.68489,-4.3319 -10.18022,-6.24135 -3.49538,-1.90963 -7.08407,-3.64325 -10.75264,-5.19438 -3.66896,-1.55092 -7.41319,-2.91736 -11.21867,-4.09421 -1.42662,-0.39262 -2.86041,-0.75869 -4.30063,-1.09804 -14.14688,11.18369 -26.2293,34.57475 -32.8107,54.55552 -12.96018,0.38127 -25.4582,4.90015 -35.665394,12.89544 -2.15922,-22.12637 1.466931,-50.55807 14.646924,-69.38315 z"
         id="path19" />
    </clipPath>
    <linearGradient
       id="linearGradient954">
      <stop
         id="stop950"
         offset="0"
         style="stop-color:#faf8f6" />
      <stop
         id="stop952"
         offset="1"
         style="stop-color:#f1f0e9" />
    </linearGradient>
    <filter
       style="color-interpolation-filters:sRGB"
       id="filter11191"
       width="1.024"
       height="1.024"
       x="-.01"
       y="-.01">
      <feGaussianBlur
         id="feGaussianBlur11193"
         stdDeviation="1.12" />
    </filter>
    <filter
       style="color-interpolation-filters:sRGB"
       id="filter11210"
       width="1.096"
       height="1.096"
       x="-.05"
       y="-.05">
      <feGaussianBlur
         id="feGaussianBlur11212"
         stdDeviation="4.48" />
    </filter>
    <linearGradient
       id="linearGradient873"
       x1="104"
       x2="200"
       y1="44"
       y2="268"
       gradientTransform="matrix(0.85714286,0,0,0.85714286,-259.03771,-256.96229)"
       gradientUnits="userSpaceOnUse"
       xlink:href="#linearGradient954" />
    <clipPath
       clipPathUnits="userSpaceOnUse"
       id="clipPath5154-5">
      <circle
         id="circle7-3"
         style="fill:url(#radialGradient5158)"
         r="109.647"
         cy="924.362"
         cx="128" />
    </clipPath>
    <clipPath
       clipPathUnits="userSpaceOnUse"
       id="clipPath977-5">
      <circle
         id="circle10-6"
         style="fill:url(#radialGradient5158)"
         r="109.647"
         cy="924.362"
         cx="128" />
    </clipPath>
    <clipPath
       clipPathUnits="userSpaceOnUse"
       id="clipPath4688-2">
      <path
         id="path13-9"
         style="fill:url(#radialGradient4692);stroke:#a7003f;stroke-linecap:round;stroke-linejoin:round"
         d="m 106.42383,889.60156 c -2.2448,-0.0524 -4.09304,1.75264 -4.09375,3.99805 v 32.64453 32.64453 c -4e-5,3.07923 3.33305,5.004 6,3.46485 l 28.26953,-16.32227 28.27148,-16.32227 c 2.66559,-1.54001 2.66559,-5.38772 0,-6.92773 l -28.27148,-16.32227 -28.26953,-16.32226 c -0.58054,-0.3353 -1.23603,-0.51932 -1.90625,-0.53516 z" />
    </clipPath>
    <clipPath
       clipPathUnits="userSpaceOnUse"
       id="clipPath4564-1">
      <circle
         id="circle16-2"
         style="fill:url(#radialGradient4568)"
         r="109.647"
         cy="924.362"
         cx="128" />
    </clipPath>
    <clipPath
       clipPathUnits="userSpaceOnUse"
       id="clipPath6215-7">
      <path
         id="path19-0"
         style="fill:url(#radialGradient6219)"
         d="m 105.17325,806.18572 c -3.06859,0.56361 -6.11393,1.24721 -9.129005,2.04923 -3.838255,1.06506 -7.62084,2.32142 -11.333578,3.76438 -3.712189,1.44307 -7.34989,3.07087 -10.899472,4.87732 -3.549153,1.80656 -7.005749,3.78947 -10.35684,5.94129 -3.351877,2.15253 -6.593991,4.47137 -9.714191,6.94783 -3.119992,2.47544 -6.114241,5.10535 -8.971529,7.87988 -0.367219,0.38909 -0.731819,0.78065 -1.093777,1.17464 2.60205,17.85956 16.832359,40.03752 30.863064,55.74236 -4.76734,8.84435 -7.265993,18.73329 -7.272057,28.78068 0.02104,2.87431 0.246096,5.7435 0.673482,8.58593 -20.257302,-9.18513 -43.077023,-26.53494 -52.798465,-47.36396 -0.440667,1.15171 -0.863474,2.31018 -1.268271,3.47498 -1.176789,3.80495 -2.162562,7.66637 -2.953625,11.56979 -0.79154,3.90311 -1.3874065,7.84335 -1.7853678,11.80598 -0.39733,3.96334 -0.5961891,7.94407 -0.5958321,11.92728 -4.394e-4,2.81936 0.098928,5.63785 0.2979155,8.45018 0.282275,3.97319 0.763088,7.92978 1.4406374,11.85493 0.625626,3.51826 1.408798,7.00668 2.347153,10.45473 16.778133,6.68355 43.114514,5.45001 63.748015,1.14301 6.818545,11.02763 16.987182,19.58379 29.018153,24.41667 -18.071844,12.93645 -44.490188,24.02095 -67.37308,22.03245 1.384097,1.665 2.813203,3.2921 4.285735,4.8794 2.774977,2.8571 5.691103,5.5737 8.737453,8.1395 3.046107,2.5658 6.218619,4.9777 9.505651,7.2266 3.287242,2.2488 6.684891,4.3319 10.180217,6.2413 3.495379,1.9096 7.084075,3.6433 10.752641,5.1944 3.66896,1.5509 7.413193,2.9174 11.218668,4.0942 1.438565,0.3959 2.884421,0.7648 4.336807,1.1066 14.138748,-11.1844 26.206378,-34.5828 32.780368,-54.56406 12.95816,-0.38251 25.45395,-4.90132 35.65955,-12.89544 2.15922,22.12638 -1.46693,50.5581 -14.64692,69.3832 3.06859,-0.5636 6.11393,-1.2473 9.129,-2.0493 3.83826,-1.0651 7.62084,-2.3214 11.33358,-3.7644 3.71219,-1.4431 7.34989,-3.0709 10.89947,-4.8773 3.54915,-1.8066 7.00575,-3.7895 10.35684,-5.9413 3.35188,-2.1525 6.59399,-4.4714 9.71419,-6.9478 3.11999,-2.4754 6.11424,-5.1054 8.97153,-7.8799 0.36722,-0.3891 0.73182,-0.7806 1.09378,-1.1746 -2.60204,-17.85957 -16.83236,-40.03755 -30.86307,-55.74238 4.76735,-8.84435 7.266,-18.7333 7.27207,-28.78069 -0.021,-2.8743 -0.24611,-5.74349 -0.6735,-8.58592 20.25731,9.18513 43.07704,26.53494 52.79848,47.36396 0.44067,-1.15171 0.86347,-2.31018 1.26827,-3.47499 1.17679,-3.80495 2.16256,-7.66636 2.95362,-11.56978 0.79154,-3.90311 1.38741,-7.84335 1.78537,-11.80598 0.39733,-3.96334 0.59619,-7.94408 0.59583,-11.92729 4.4e-4,-2.81936 -0.0989,-5.63784 -0.29791,-8.45017 -0.28228,-3.97319 -0.76309,-7.92978 -1.44064,-11.85493 -0.62776,-3.53416 -1.41449,-7.03823 -2.35779,-10.50154 -20.56165,-7.32804 -45.89823,-4.79548 -63.74906,-1.11372 -6.81835,-11.01918 -16.98234,-19.56874 -29.00647,-24.39915 18.07184,-12.93645 44.49019,-24.02091 67.37307,-22.03241 -1.38409,-1.66502 -2.8132,-3.2921 -4.28573,-4.87944 -2.77498,-2.85712 -5.6911,-5.57368 -8.73745,-8.13949 -3.04611,-2.56581 -6.21862,-4.97769 -9.50565,-7.22659 -3.28724,-2.24885 -6.68489,-4.3319 -10.18022,-6.24135 -3.49538,-1.90963 -7.08407,-3.64325 -10.75264,-5.19438 -3.66896,-1.55092 -7.41319,-2.91736 -11.21867,-4.09421 -1.42662,-0.39262 -2.86041,-0.75869 -4.30063,-1.09804 -14.14688,11.18369 -26.2293,34.57475 -32.8107,54.55552 -12.96018,0.38127 -25.4582,4.90015 -35.665394,12.89544 -2.15922,-22.12637 1.466931,-50.55807 14.646924,-69.38315 z" />
    </clipPath>
    <linearGradient
       gradientUnits="userSpaceOnUse"
       gradientTransform="matrix(117.16873,0,0,110.27645,69.41563,62.390233)"
       y2="1"
       y1="0"
       x2="0"
       x1="0"
       id="_lgradient_78">
      <stop
         style="stop-color:#1fd1b0"
         offset="0%"
         id="stop51" />
      <stop
         style="stop-color:#00ffaa"
         offset="100%"
         id="stop53" />
    </linearGradient>
  </defs>
  <circle
     style="opacity:0.1;filter:url(#filter11210)"
     cx="128.752"
     cy="127.248"
     r="112"
     id="circle32" />
  <circle
     style="opacity:0.1;filter:url(#filter11191)"
     cx="128.752"
     cy="125.248"
     r="112"
     id="circle34" />
  <circle
     style="opacity:0.1"
     cx="128.752"
     cy="123.248"
     r="114"
     id="circle36" />
  <circle
     style="fill:#595959"
     cx="-128.752"
     cy="-123.248"
     r="112"
     transform="scale(-1)"
     id="circle38" />
  <path
     style="opacity:0.3;fill:#ffffff"
     d="M 128.752,11.248007 A 112,112 0 0 0 16.752,123.248 112,112 0 0 0 16.79302,124.41792 112,112 0 0 1 128.752,13.248007 112,112 0 0 1 240.71098,124.07808 a 112,112 0 0 0 0.041,-0.83008 112,112 0 0 0 -112,-111.999993 z"
     id="path42" />
  <path
     style="opacity:0.2"
     d="m 128.752,235.248 a 112,112 0 0 1 -112,-112 112,112 0 0 1 0.04102,-1.16992 A 112,112 0 0 0 128.752,233.248 112,112 0 0 0 240.71098,122.41792 a 112,112 0 0 1 0.041,0.83008 112,112 0 0 1 -112,112 z"
     id="path44" />
  <circle
     cx="-128.752"
     cy="-123.248"
     r="96"
     transform="scale(-1)"
     style="fill:#c0bfbc;fill-opacity:1"
     id="circle46" />
  <path
     style="opacity:0.3;fill:#ffffff"
     d="M 128.75195 27.248047 A 96 96 0 0 0 32.751953 123.24805 A 96 96 0 0 0 32.792969 124.41992 A 96 96 0 0 1 128.75195 29.248047 A 96 96 0 0 1 224.71094 124.07617 A 96 96 0 0 0 224.75195 123.24805 A 96 96 0 0 0 128.75195 27.248047 z"
     id="path50" />
  <path
     style="opacity:0.2"
     d="M 224.71094 122.07617 A 96 96 0 0 1 128.75195 217.24805 A 96 96 0 0 1 32.792969 122.41992 A 96 96 0 0 0 32.751953 123.24805 A 96 96 0 0 0 128.75195 219.24805 A 96 96 0 0 0 224.75195 123.24805 A 96 96 0 0 0 224.71094 122.07617 z"
     id="path52" />
  <g
     style="enable-background:new"
     id="g925"
     transform="translate(-297.22034,19.440683)">
    <g
       transform="matrix(1.9555556,0,0,1.9555556,136.23628,44.172235)"
       id="g888">
      <g
         transform="translate(1.450301,0.61054807)"
         id="g892">
        <path
           id="path868"
           d="M 146.33225,-0.96494413 101.71018,30.271383 135.72386,54.080955 138.40451,40.203022 124.21018,30.271383 142.82542,17.237204 Z"
           style="fill:#613583;fill-opacity:1;stroke-width:2.25"
           inkscape:connector-curvature="0" />
        <path
           id="path870"
           d="m 158.53148,7.0506804 -2.67188,13.8779276 13.35058,9.342775 -17.51661,12.26074 -3.50683,18.202149 43.52344,-30.462889 z"
           style="fill:#3584e4;fill-opacity:1;stroke-width:2.25"
           inkscape:connector-curvature="0" />
      </g>
    </g>
  </g>
  <path
     style="opacity:0.1;fill:#ffffff"
     d="M 16.751953 123.24219 A 112 112 0 0 0 16.751953 123.24805 A 112 112 0 0 0 17.033203 131.16992 A 112 112 0 0 0 18.380859 142.28516 A 112 112 0 0 0 20.833984 153.20703 A 112 112 0 0 0 24.363281 163.83203 A 112 112 0 0 0 28.9375 174.05078 A 112 112 0 0 0 34.507812 183.76172 A 112 112 0 0 0 41.019531 192.86914 A 112 112 0 0 0 48.408203 201.2793 A 112 112 0 0 0 56.599609 208.91016 A 112 112 0 0 0 65.511719 215.68555 A 112 112 0 0 0 75.056641 221.53711 A 112 112 0 0 0 85.136719 226.40625 A 112 112 0 0 0 95.654297 230.24609 A 112 112 0 0 0 106.50195 233.01562 A 112 112 0 0 0 117.57031 234.6875 A 112 112 0 0 0 128.75195 235.24805 A 112 112 0 0 0 136.67383 234.9668 A 112 112 0 0 0 147.78906 233.61914 A 112 112 0 0 0 158.71094 231.16602 A 112 112 0 0 0 169.33594 227.63672 A 112 112 0 0 0 179.55469 223.0625 A 112 112 0 0 0 189.26562 217.49219 A 112 112 0 0 0 198.37305 210.98047 A 112 112 0 0 0 206.7832 203.5918 A 112 112 0 0 0 214.41406 195.40039 A 112 112 0 0 0 221.18945 186.48828 A 112 112 0 0 0 227.04102 176.94336 A 112 112 0 0 0 231.91016 166.86328 A 112 112 0 0 0 235.75 156.3457 A 112 112 0 0 0 238.51953 145.49805 A 112 112 0 0 0 240.19336 134.42969 A 112 112 0 0 0 240.75195 123.24805 A 112 112 0 0 0 240.75195 123.24219 L 16.751953 123.24219 z"
     id="path40" />
</svg>

<svg enable-background="new" height="256" viewBox="0 0 256 256" width="256" xmlns="http://www.w3.org/2000/svg" xmlns:xlink="http://www.w3.org/1999/xlink">
  <filter id="filter11191" color-interpolation-filters="sRGB" height="1.024" width="1.024" x="-.01" y="-.01">
    <feGaussianBlur stdDeviation="1.12"/>
  </filter>
  <filter id="filter11210" color-interpolation-filters="sRGB" height="1.096" width="1.096" x="-.05" y="-.05">
    <feGaussianBlur stdDeviation="4.48"/>
  </filter>
  <circle cx="128.752" cy="127.248" filter="url(#filter11210)" opacity=".1" r="112"/>
  <circle cx="128.752" cy="125.248" filter="url(#filter11191)" opacity=".1" r="112"/>
  <circle cx="128.752" cy="123.248" opacity=".1" r="114"/>
  <circle cx="-128.752" cy="-123.248" fill="#595959" r="112" transform="scale(-1)"/>
  <path d="m128.752 11.248007a112 112 0 0 0 -112 111.999993 112 112 0 0 0 .04102 1.16992 112 112 0 0 1 111.95898-111.169913 112 112 0 0 1 111.95898 110.830073 112 112 0 0 0 .041-.83008 112 112 0 0 0 -112-111.999993z" fill="#fff" opacity=".3"/>
  <path d="m128.752 235.248a112 112 0 0 1 -112-112 112 112 0 0 1 .04102-1.16992 112 112 0 0 0 111.95898 111.16992 112 112 0 0 0 111.95898-110.83008 112 112 0 0 1 .041.83008 112 112 0 0 1 -112 112z" opacity=".2"/>
  <circle cx="-128.752" cy="-123.248" fill="#c0bfbc" r="96" transform="scale(-1)"/>
  <path d="m128.75195 27.248047a96 96 0 0 0 -95.999997 96.000003 96 96 0 0 0 .041016 1.17187 96 96 0 0 1 95.958981-95.171873 96 96 0 0 1 95.95899 94.828123 96 96 0 0 0 .04101-.82812 96 96 0 0 0 -96-96.000003z" fill="#fff" opacity=".3"/>
  <path d="m224.71094 122.07617a96 96 0 0 1 -95.95899 95.17188 96 96 0 0 1 -95.958981-94.82813 96 96 0 0 0 -.041016.82813 96 96 0 0 0 95.999997 96 96 96 0 0 0 96-96 96 96 0 0 0 -.04101-1.17188z" opacity=".2"/>
  <g enable-background="new" stroke-width="2.25" transform="matrix(1.9555556 0 0 1.9555556 -158.14791575776 64.80687856047)">
    <path d="m146.33225-.96494413-44.62207 31.23632713 34.01368 23.809572 2.68065-13.877933-14.19433-9.931639 18.61524-13.034179z" fill="#613583"/>
    <path d="m158.53148 7.0506804-2.67188 13.8779276 13.35058 9.342775-17.51661 12.26074-3.50683 18.202149 43.52344-30.462889z" fill="#3584e4"/>
  </g>
  <path d="m16.751953 123.24219a112 112 0 0 0 0 .00586 112 112 0 0 0 .28125 7.92187 112 112 0 0 0 1.347656 11.11524 112 112 0 0 0 2.453125 10.92187 112 112 0 0 0 3.529297 10.625 112 112 0 0 0 4.574219 10.21875 112 112 0 0 0 5.570312 9.71094 112 112 0 0 0 6.511719 9.10742 112 112 0 0 0 7.388672 8.41016 112 112 0 0 0 8.191406 7.63086 112 112 0 0 0 8.91211 6.77539 112 112 0 0 0 9.544922 5.85156 112 112 0 0 0 10.080078 4.86914 112 112 0 0 0 10.517578 3.83984 112 112 0 0 0 10.847653 2.76953 112 112 0 0 0 11.06836 1.67188 112 112 0 0 0 11.18164.56055 112 112 0 0 0 7.92188-.28125 112 112 0 0 0 11.11523-1.34766 112 112 0 0 0 10.92188-2.45312 112 112 0 0 0 10.625-3.5293 112 112 0 0 0 10.21875-4.57422 112 112 0 0 0 9.71093-5.57031 112 112 0 0 0 9.10743-6.51172 112 112 0 0 0 8.41015-7.38867 112 112 0 0 0 7.63086-8.19141 112 112 0 0 0 6.77539-8.91211 112 112 0 0 0 5.85157-9.54492 112 112 0 0 0 4.86914-10.08008 112 112 0 0 0 3.83984-10.51758 112 112 0 0 0 2.76953-10.84765 112 112 0 0 0 1.67383-11.06836 112 112 0 0 0 .55859-11.18164 112 112 0 0 0 0-.00586z" fill="#fff" opacity=".1"/>
</svg>
